X:150
T:Always Welcome
M:4/4
O:Shetland
O:Scotland
R:Reel
Z:Richard Robinson 
%%TUNEURL: http://www.leeds.ac.uk/music/Info/RRTuneBk/gettune/000007f6.html
%%ID:000007f6
K:A
E2EF A2AB | cBAB cee2 | f2fe fgaf | ecBc AFF2 |\
E2EF A2AB | cBAB cee2 |
f2fe fgaf | ecBc A4::\
A2Ac eA A/2A/2A | eAfA eA A/2A/2A |
B2Bd fefg | agaf ecBc |\
A2Ac eA A/2A/2A | eAfA eA A/2A/2A | \
f2fe fgaf | ecBc A4 :|
